!!!COM: Anon.
!!!OCL: Francis James Child
!!!OPR: The English and Scottish Popular Ballads
!!!OVM: Vol. 1
!!!ONB: Ballad No. 5, Tune No. 2
!!!ONM: No. 5
!!!PDT: 1882
!!!YEM: Public domain.
**kern
*M3/4
{8b
8a
=1
4g
8g
8g
8b
8cc
=2
2dd}
!! Second phrase:
{(8ee
8dd)
=3
4b
(16g
8.b)
(8.a
16g)
=4
4.g}
!! Third phrase:
{8cc
8b
8a
=5
4g
4g
8b
8cc
=6
2dd}
!! Fourth phrase:
{(8ee
8dd)
=7
4b
(16g
8.b)
(8.a
16g)
=8
2g}
====
*-
!!!OCY: Britain; England
!!!PPP: Boston
!!!ODT: <1882
!!!AFR: folk song
!!!AST: monophony
!!!AMT: simple triple
!!!SCA: Child Collection
!!!AIN: vox
!!!EEV: 1.0
!!!RDT: 1987 June
!!!YER: 1994 August 10
!!!VTS: 652652838
